!!!SOCIAL_FUNCTION:	songs in honor of an individual
!!!PDT:	1918

Specific Region: Dakotas, Minnesota, Montana, Nebraska
!!!REG: Dakotas and Montana
!!!LING_GROUP: Siouan
!!!LANG: Tone
!!!OTL@ENG: Hence They Come
!!!ONM: No. 230
**kern
*Imale
*clefG2
*k[f#c#]
*M3/4
*MM66
4a
8a
16a
16f#
8e
8e
=2
16a
8.f#
12f#
12a
12f#
4e
=3
8d
8d
8d
8B
8B
8B
=4
2.B
=5
16d
8.d
16d
8.d
16B
16r
8e
=6||
*M2/4
16e
8.d
8B
8B
=7
16B
8.B
8B
8B
=8
2B
=9
2B
=10
16B
8.a
8a
8a
=11||
*M3/4
12a
8a
24f#
4e
8e
8e
=12
16a
8.f#
12f#
8a
24f#
4e
=13
16d
8.d
16d
8.B
8.B
16B
=14
2.B
=15
16d
8.d
16d
8.d
16B
16r
8e
=16||
*M2/4
16e
8.d
8B
8B
=17
16B
8.B
8B
8B
=18
2B
=19
2B
==
*-
!!!CNT: Native American -- Sioux
!!!MRD: 1911/07//-1914///
!!!OCL: Frances Densmore
!!!YOR1: Teton Sioux Music, Bulletin 61,
!!!YOR2: Bureau of American Ethnology, Smithsonian Institution
!!!PPR: Government Printing Office
!!!PPP: Washington, D.C.
!!!PDT: 1918///
!!!ENC: Craig Stuart Sapp
!!!END: 2002/03/25/
!!!EEV: 2002/03/31/
!!!AGN: Song in Honor of an Individual
!!!MPN@@SIO: Oku'te
!!!MPN@ENG: Shooter
!!!TXO: Teton Sioux
!!!MLC: Standing Rock Reservation, South Dakota, United States of America
!!!ARL: 45.9/-100.7#
!!!catalog: Catalogue No. 578
!!!PPG: 508
!!!EFL: 235/245
!!!VTS: 26594319
